assets/img/collection-ico.svg

<svg width="250" height="250" viewBox="0 0 250 250" fill="none" xmlns="http://www.w3.org/2000/svg">
<g clip-path="url(#clip0_305_7501)">
<path d="M125 229.167C182.53 229.167 229.167 182.53 229.167 125C229.167 67.4704 182.53 20.8334 125 20.8334C67.4703 20.8334 20.8333 67.4704 20.8333 125C20.8333 182.53 67.4703 229.167 125 229.167Z" fill="url(#paint0_linear_305_7501)"/>
<g filter="url(#filter0_f_305_7501)">
<path d="M125 201.087C167.022 201.087 201.087 167.022 201.087 125C201.087 82.9784 167.022 48.9131 125 48.9131C82.9783 48.9131 48.913 82.9784 48.913 125C48.913 167.022 82.9783 201.087 125 201.087Z" fill="url(#paint1_linear_305_7501)"/>
</g>
<path fill-rule="evenodd" clip-rule="evenodd" d="M75.2685 46.7211C77.0112 46.7211 78.424 45.3083 78.424 43.5656C78.424 41.8229 77.0112 40.4101 75.2685 40.4101C73.5258 40.4101 72.113 41.8229 72.113 43.5656C72.113 45.3083 73.5258 46.7211 75.2685 46.7211ZM75.2685 49.0877C78.3183 49.0877 80.7907 46.6154 80.7907 43.5656C80.7907 40.5158 78.3183 38.0435 75.2685 38.0435C72.2187 38.0435 69.7464 40.5158 69.7464 43.5656C69.7464 46.6154 72.2187 49.0877 75.2685 49.0877Z" fill="white"/>
<path fill-rule="evenodd" clip-rule="evenodd" d="M46.283 179.873C48.0257 179.873 49.4385 178.46 49.4385 176.717C49.4385 174.975 48.0257 173.562 46.283 173.562C44.5403 173.562 43.1275 174.975 43.1275 176.717C43.1275 178.46 44.5403 179.873 46.283 179.873ZM46.283 182.24C49.3328 182.24 51.8052 179.767 51.8052 176.717C51.8052 173.667 49.3328 171.196 46.283 171.196C43.2332 171.196 40.7609 173.667 40.7609 176.717C40.7609 179.767 43.2332 182.24 46.283 182.24Z" fill="white"/>
<path fill-rule="evenodd" clip-rule="evenodd" d="M204.797 91.105C206.54 91.105 207.953 89.6923 207.953 87.9496C207.953 86.2069 206.54 84.7942 204.797 84.7942C203.054 84.7942 201.642 86.2069 201.642 87.9496C201.642 89.6923 203.054 91.105 204.797 91.105ZM204.797 93.4719C207.847 93.4719 210.32 90.999 210.32 87.9496C210.32 84.8999 207.847 82.4275 204.797 82.4275C201.747 82.4275 199.275 84.8999 199.275 87.9496C199.275 90.999 201.747 93.4719 204.797 93.4719Z" fill="white"/>
<path d="M39.3034 47.2724C39.5355 46.3109 40.9032 46.3109 41.1352 47.2724L41.9164 50.5084C41.9994 50.852 42.2677 51.1203 42.6112 51.2033L45.8473 51.9844C46.8088 52.2165 46.8088 53.5842 45.8473 53.8162L42.6112 54.5974C42.2677 54.6804 41.9994 54.9486 41.9164 55.2922L41.1352 58.5283C40.9032 59.4898 39.5355 59.4898 39.3034 58.5283L38.5223 55.2922C38.4393 54.9486 38.1711 54.6804 37.8274 54.5974L34.5914 53.8162C33.6299 53.5842 33.6299 52.2165 34.5914 51.9844L37.8274 51.2033C38.1711 51.1203 38.4393 50.852 38.5223 50.5084L39.3034 47.2724Z" fill="white"/>
<path d="M207.694 46.7313C207.947 45.6774 209.447 45.6774 209.701 46.7313L210.558 50.2784C210.649 50.6551 210.943 50.9492 211.319 51.0401L214.866 51.8964C215.92 52.1507 215.92 53.6498 214.866 53.9043L211.319 54.7605C210.943 54.8514 210.649 55.1455 210.558 55.5221L209.701 59.0693C209.447 60.1232 207.947 60.1232 207.694 59.0693L206.837 55.5221C206.746 55.1455 206.452 54.8514 206.075 54.7605L202.528 53.9043C201.475 53.6498 201.475 52.1507 202.528 51.8964L206.075 51.0401C206.452 50.9492 206.746 50.6551 206.837 50.2784L207.694 46.7313Z" fill="url(#paint2_linear_305_7501)"/>
<path d="M49.8469 200.396C51.0462 200.204 52.0036 201.381 51.5703 202.516L48.6455 210.175C48.2121 211.31 46.713 211.55 45.9471 210.607L40.7769 204.244C40.0109 203.302 40.5525 201.884 41.7518 201.692L49.8469 200.396Z" fill="url(#paint3_linear_305_7501)"/>
<path d="M193.821 179.354C193.521 178.177 194.607 177.117 195.776 177.445L203.669 179.663C204.838 179.992 205.214 181.463 204.344 182.311L198.477 188.037C197.608 188.886 196.147 188.475 195.846 187.298L193.821 179.354Z" fill="url(#paint4_linear_305_7501)"/>
<path d="M165.316 139.37L94.9837 113.77C89.5923 111.808 83.6312 114.588 81.6689 119.979L65.0659 165.595C63.1037 170.986 65.8834 176.948 71.2746 178.91L141.608 204.509C146.999 206.471 152.96 203.691 154.922 198.3L171.525 152.684C173.487 147.293 170.707 141.332 165.316 139.37Z" fill="url(#paint5_linear_305_7501)"/>
<path d="M162.461 153.498L183.237 123.572C186.509 118.859 185.341 112.386 180.629 109.114L150.702 88.3377C145.989 85.0658 139.516 86.234 136.245 90.9466L115.468 120.873C112.197 125.586 113.364 132.059 118.077 135.331L148.004 156.107C152.716 159.379 159.189 158.21 162.461 153.498Z" fill="url(#paint6_linear_305_7501)"/>
<path d="M138.808 129.681C137.537 131.433 135.095 131.821 133.343 130.549C131.591 129.278 131.205 126.836 132.476 125.084C133.747 123.332 136.189 122.945 137.941 124.217C139.692 125.488 140.08 127.93 138.808 129.681Z" fill="url(#paint7_linear_305_7501)"/>
<path d="M150.37 113.727L147.952 111.974L136.408 127.893L138.825 129.647L150.37 113.727Z" fill="url(#paint8_linear_305_7501)"/>
<path d="M152.393 132.506C151.121 134.258 148.679 134.646 146.928 133.374C145.177 132.103 144.789 129.661 146.061 127.909C147.332 126.158 149.774 125.77 151.525 127.042C153.277 128.313 153.665 130.755 152.393 132.506Z" fill="url(#paint9_linear_305_7501)"/>
<path d="M163.977 116.543L161.56 114.791L150.017 130.712L152.436 132.465L163.977 116.543Z" fill="url(#paint10_linear_305_7501)"/>
<path d="M163.947 116.584L146.416 114.102L147.956 111.971L165.484 114.461L163.947 116.584Z" fill="url(#paint11_linear_305_7501)"/>
<path d="M161.036 120.595L143.505 118.113L145.044 115.982L162.581 118.475L161.036 120.595Z" fill="url(#paint12_linear_305_7501)"/>
<path d="M147.076 87.2557L140.992 59.0674C139.782 53.4593 134.254 49.8943 128.646 51.1048L91.7853 59.0608C86.1775 60.2712 82.6126 65.7987 83.8231 71.4068L89.9073 99.5951C91.1178 105.203 96.6449 108.768 102.254 107.558L139.113 99.6014C144.722 98.3913 148.286 92.8641 147.076 87.2557Z" fill="url(#paint13_linear_305_7501)"/>
<path d="M146.596 84.3583L125.934 67.7684L117.946 83.5169L109.531 78.6656L97.8967 94.8605L89.1704 96.7409L89.5859 98.6938C90.9882 105.177 97.3768 109.301 103.86 107.898L137.797 100.574C144.28 99.1721 148.404 92.7835 147.001 86.3009L146.586 84.3583H146.596Z" fill="url(#paint14_linear_305_7501)"/>
<path opacity="0.9" d="M97.6884 76.7851C100.919 76.7019 103.007 73.4608 101.75 70.4898C101.043 68.8278 99.3505 67.737 97.5426 67.7785C94.3125 67.8616 92.2237 71.1028 93.481 74.0738C94.1875 75.7358 95.8804 76.8266 97.6884 76.7851Z" fill="white"/>
<path d="M153.834 196.629C152.397 202.673 146.012 206.112 140.175 203.987L69.9729 178.436C65.0169 176.632 62.1992 171.401 63.4198 166.27L73.389 124.364C74.8265 118.321 81.211 114.881 87.048 117.006L157.25 142.558C162.206 144.361 165.024 149.592 163.803 154.724L153.834 196.629Z" fill="url(#paint15_linear_305_7501)"/>
</g>
<defs>
<filter id="filter0_f_305_7501" x="-5.08696" y="-5.08691" width="260.174" height="260.174" filterUnits="userSpaceOnUse" color-interpolation-filters="sRGB">
<feFlood flood-opacity="0" result="BackgroundImageFix"/>
<feBlend mode="normal" in="SourceGraphic" in2="BackgroundImageFix" result="shape"/>
<feGaussianBlur stdDeviation="27" result="effect1_foregroundBlur_305_7501"/>
</filter>
<linearGradient id="paint0_linear_305_7501" x1="49.8944" y1="20.8334" x2="208.898" y2="53.9321" gradientUnits="userSpaceOnUse">
<stop stop-color="#A259FF"/>
<stop offset="1" stop-color="#3B3B3B"/>
</linearGradient>
<linearGradient id="paint1_linear_305_7501" x1="212.862" y1="137.681" x2="156.245" y2="235.275" gradientUnits="userSpaceOnUse">
<stop stop-color="#A259FF" stop-opacity="0"/>
<stop offset="1" stop-color="#FF6250"/>
</linearGradient>
<linearGradient id="paint2_linear_305_7501" x1="211.673" y1="49.034" x2="225.015" y2="59.5137" gradientUnits="userSpaceOnUse">
<stop stop-color="#A259FF"/>
<stop offset="1" stop-color="#377DF7"/>
</linearGradient>
<linearGradient id="paint3_linear_305_7501" x1="51.0837" y1="204.28" x2="50.638" y2="217.555" gradientUnits="userSpaceOnUse">
<stop stop-color="#A259FF"/>
<stop offset="1" stop-color="#377DF7"/>
</linearGradient>
<linearGradient id="paint4_linear_305_7501" x1="197.577" y1="177.77" x2="210.838" y2="177.009" gradientUnits="userSpaceOnUse">
<stop stop-color="#A259FF"/>
<stop offset="1" stop-color="#377DF7"/>
</linearGradient>
<linearGradient id="paint5_linear_305_7501" x1="144.092" y1="148.037" x2="182.892" y2="240.768" gradientUnits="userSpaceOnUse">
<stop stop-color="#A259FF"/>
<stop offset="0.416667" stop-color="#A259FF" stop-opacity="0"/>
</linearGradient>
<linearGradient id="paint6_linear_305_7501" x1="155.431" y1="141.332" x2="88.7769" y2="161.814" gradientUnits="userSpaceOnUse">
<stop stop-color="#FF7262"/>
<stop offset="0.317708" stop-color="#A259FF"/>
</linearGradient>
<linearGradient id="paint7_linear_305_7501" x1="144.953" y1="111.553" x2="152.341" y2="127.113" gradientUnits="userSpaceOnUse">
<stop stop-color="#3B3B3B"/>
<stop offset="1" stop-color="#A259FF"/>
</linearGradient>
<linearGradient id="paint8_linear_305_7501" x1="171.051" y1="84.8332" x2="177.564" y2="91.2273" gradientUnits="userSpaceOnUse">
<stop stop-color="#3B3B3B"/>
<stop offset="1" stop-color="#A259FF"/>
</linearGradient>
<linearGradient id="paint9_linear_305_7501" x1="158.538" y1="114.379" x2="165.925" y2="129.938" gradientUnits="userSpaceOnUse">
<stop stop-color="#3B3B3B"/>
<stop offset="1" stop-color="#A259FF"/>
</linearGradient>
<linearGradient id="paint10_linear_305_7501" x1="184.654" y1="87.6457" x2="191.168" y2="94.0389" gradientUnits="userSpaceOnUse">
<stop stop-color="#3B3B3B"/>
<stop offset="1" stop-color="#A259FF"/>
</linearGradient>
<linearGradient id="paint11_linear_305_7501" x1="168.053" y1="103.503" x2="167.786" y2="121.807" gradientUnits="userSpaceOnUse">
<stop stop-color="#3B3B3B"/>
<stop offset="1" stop-color="#A259FF"/>
</linearGradient>
<linearGradient id="paint12_linear_305_7501" x1="165.149" y1="107.516" x2="164.88" y2="125.821" gradientUnits="userSpaceOnUse">
<stop stop-color="#3B3B3B"/>
<stop offset="1" stop-color="#A259FF"/>
</linearGradient>
<linearGradient id="paint13_linear_305_7501" x1="123.704" y1="58.7818" x2="135.466" y2="97.2283" gradientUnits="userSpaceOnUse">
<stop stop-color="#FF7262"/>
<stop offset="1" stop-color="#A259FF"/>
</linearGradient>
<linearGradient id="paint14_linear_305_7501" x1="115.393" y1="123.189" x2="102.616" y2="75.9933" gradientUnits="userSpaceOnUse">
<stop stop-color="#A259FF"/>
<stop offset="1" stop-color="white"/>
</linearGradient>
<linearGradient id="paint15_linear_305_7501" x1="137.015" y1="183.7" x2="88.1551" y2="59.3852" gradientUnits="userSpaceOnUse">
<stop stop-color="#A259FF"/>
<stop offset="0.666667" stop-color="white"/>
</linearGradient>
<clipPath id="clip0_305_7501">
<rect width="250" height="250" fill="white"/>
</clipPath>
</defs>
</svg>

<svg xmlns="http://www.w3.org/2000/svg" width="250" height="250" fill="none"><g clip-path="url(#a)"><path fill="url(#b)" d="M125 229.167c57.53 0 104.167-46.637 104.167-104.167S182.53 20.833 125 20.833 20.833 67.47 20.833 125 67.47 229.167 125 229.167Z"/><g filter="url(#c)"><path fill="url(#d)" d="M125 201.087c42.022 0 76.087-34.065 76.087-76.087 0-42.022-34.065-76.087-76.087-76.087-42.022 0-76.087 34.065-76.087 76.087 0 42.022 34.065 76.087 76.087 76.087Z"/></g><path fill="#fff" fill-rule="evenodd" d="M75.269 46.721a3.156 3.156 0 1 0 0-6.311 3.156 3.156 0 0 0 0 6.311Zm0 2.367a5.522 5.522 0 1 0 0-11.045 5.522 5.522 0 0 0 0 11.045ZM46.283 179.873a3.156 3.156 0 1 0 0-6.312 3.156 3.156 0 0 0 0 6.312Zm0 2.367a5.523 5.523 0 1 0-.001-11.046 5.523 5.523 0 0 0 .001 11.046ZM204.797 91.105a3.156 3.156 0 1 0 0-6.311 3.156 3.156 0 0 0 0 6.311Zm0 2.367a5.523 5.523 0 1 0 0-11.046 5.523 5.523 0 0 0 0 11.046Z" clip-rule="evenodd"/><path fill="#fff" d="M39.303 47.272c.233-.961 1.6-.961 1.832 0l.781 3.236a.943.943 0 0 0 .695.695l3.236.781c.962.233.962 1.6 0 1.832l-3.236.781a.943.943 0 0 0-.695.695l-.78 3.236c-.233.962-1.6.962-1.833 0l-.78-3.236a.942.942 0 0 0-.696-.695l-3.236-.78c-.961-.233-.961-1.6 0-1.833l3.236-.78a.942.942 0 0 0 .695-.696l.781-3.236Z"/><path fill="url(#e)" d="M207.694 46.731c.253-1.054 1.753-1.054 2.007 0l.857 3.547c.091.377.385.671.761.762l3.547.856c1.054.255 1.054 1.754 0 2.008l-3.547.856c-.376.091-.67.386-.761.762l-.857 3.547c-.254 1.054-1.754 1.054-2.007 0l-.857-3.547a1.033 1.033 0 0 0-.762-.761l-3.547-.857c-1.053-.254-1.053-1.753 0-2.008l3.547-.856c.377-.09.671-.385.762-.762l.857-3.547Z"/><path fill="url(#f)" d="M49.847 200.396a1.577 1.577 0 0 1 1.723 2.12l-2.925 7.659a1.577 1.577 0 0 1-2.698.432l-5.17-6.363a1.577 1.577 0 0 1 .975-2.552l8.095-1.296Z"/><path fill="url(#g)" d="M193.821 179.354a1.578 1.578 0 0 1 1.955-1.909l7.893 2.218c1.169.329 1.545 1.8.675 2.648l-5.867 5.726a1.578 1.578 0 0 1-2.631-.739l-2.025-7.944Z"/><path fill="url(#h)" d="m165.316 139.37-70.332-25.6c-5.392-1.962-11.353.818-13.315 6.209l-16.603 45.616c-1.962 5.391.817 11.353 6.209 13.315l70.333 25.599c5.391 1.962 11.352-.818 13.314-6.209l16.603-45.616c1.962-5.391-.818-11.352-6.209-13.314Z"/><path fill="url(#i)" d="m162.461 153.498 20.776-29.926c3.272-4.713 2.104-11.186-2.608-14.458l-29.927-20.776c-4.713-3.272-11.186-2.104-14.457 2.609l-20.777 29.926c-3.271 4.713-2.104 11.186 2.609 14.458l29.927 20.776c4.712 3.272 11.185 2.103 14.457-2.609Z"/><path fill="url(#j)" d="M138.808 129.681a3.907 3.907 0 0 1-5.465.868 3.908 3.908 0 0 1-.867-5.465 3.907 3.907 0 0 1 5.465-.867 3.907 3.907 0 0 1 .867 5.464Z"/><path fill="url(#k)" d="m150.37 113.727-2.418-1.753-11.544 15.919 2.417 1.754 11.545-15.92Z"/><path fill="url(#l)" d="M152.393 132.506a3.908 3.908 0 0 1-5.465.868 3.908 3.908 0 0 1-.867-5.465 3.907 3.907 0 0 1 5.464-.867 3.906 3.906 0 0 1 .868 5.464Z"/><path fill="url(#m)" d="m163.977 116.543-2.417-1.752-11.543 15.921 2.419 1.753 11.541-15.922Z"/><path fill="url(#n)" d="m163.947 116.584-17.531-2.482 1.54-2.131 17.528 2.49-1.537 2.123Z"/><path fill="url(#o)" d="m161.036 120.595-17.531-2.482 1.539-2.131 17.537 2.493-1.545 2.12Z"/><path fill="url(#p)" d="m147.076 87.256-6.084-28.189c-1.21-5.608-6.738-9.173-12.346-7.962l-36.86 7.956c-5.609 1.21-9.173 6.738-7.963 12.346l6.084 28.188c1.21 5.608 6.738 9.173 12.347 7.963l36.859-7.957c5.609-1.21 9.173-6.737 7.963-12.345Z"/><path fill="url(#q)" d="m146.596 84.358-20.662-16.59-7.988 15.749-8.415-4.851L97.897 94.86l-8.727 1.88.416 1.953c1.402 6.483 7.79 10.607 14.274 9.204l33.937-7.324c6.483-1.402 10.607-7.79 9.204-14.273l-.415-1.943h.01Z"/><path fill="#fff" d="M97.688 76.785a4.506 4.506 0 0 0 4.062-6.295 4.498 4.498 0 0 0-4.207-2.712 4.507 4.507 0 0 0-4.062 6.296 4.497 4.497 0 0 0 4.207 2.711Z" opacity=".9"/><path fill="url(#r)" d="M153.834 196.629c-1.437 6.044-7.822 9.483-13.659 7.358l-70.202-25.551a10.388 10.388 0 0 1-6.553-12.166l9.969-41.906c1.438-6.043 7.822-9.483 13.659-7.358l70.202 25.552a10.387 10.387 0 0 1 6.553 12.166l-9.969 41.905Z"/></g><defs><linearGradient id="b" x1="49.894" x2="208.898" y1="20.833" y2="53.932" gradientUnits="userSpaceOnUse"><stop stop-color="#A259FF"/><stop offset="1" stop-color="#3B3B3B"/></linearGradient><linearGradient id="k" x1="171.051" x2="177.564" y1="84.833" y2="91.227" gradientUnits="userSpaceOnUse"><stop stop-color="#3B3B3B"/><stop offset="1" stop-color="#A259FF"/></linearGradient><linearGradient id="e" x1="211.673" x2="225.015" y1="49.034" y2="59.514" gradientUnits="userSpaceOnUse"><stop stop-color="#A259FF"/><stop offset="1" stop-color="#377DF7"/></linearGradient><linearGradient id="f" x1="51.084" x2="50.638" y1="204.28" y2="217.555" gradientUnits="userSpaceOnUse"><stop stop-color="#A259FF"/><stop offset="1" stop-color="#377DF7"/></linearGradient><linearGradient id="g" x1="197.577" x2="210.838" y1="177.77" y2="177.009" gradientUnits="userSpaceOnUse"><stop stop-color="#A259FF"/><stop offset="1" stop-color="#377DF7"/></linearGradient><linearGradient id="h" x1="144.092" x2="182.892" y1="148.037" y2="240.768" gradientUnits="userSpaceOnUse"><stop stop-color="#A259FF"/><stop offset=".417" stop-color="#A259FF" stop-opacity="0"/></linearGradient><linearGradient id="i" x1="155.431" x2="88.777" y1="141.332" y2="161.814" gradientUnits="userSpaceOnUse"><stop stop-color="#FF7262"/><stop offset=".318" stop-color="#A259FF"/></linearGradient><linearGradient id="j" x1="144.953" x2="152.341" y1="111.553" y2="127.113" gradientUnits="userSpaceOnUse"><stop stop-color="#3B3B3B"/><stop offset="1" stop-color="#A259FF"/></linearGradient><linearGradient id="d" x1="212.862" x2="156.245" y1="137.681" y2="235.275" gradientUnits="userSpaceOnUse"><stop stop-color="#A259FF" stop-opacity="0"/><stop offset="1" stop-color="#FF6250"/></linearGradient><linearGradient id="l" x1="158.538" x2="165.925" y1="114.379" y2="129.938" gradientUnits="userSpaceOnUse"><stop stop-color="#3B3B3B"/><stop offset="1" stop-color="#A259FF"/></linearGradient><linearGradient id="m" x1="184.654" x2="191.168" y1="87.646" y2="94.039" gradientUnits="userSpaceOnUse"><stop stop-color="#3B3B3B"/><stop offset="1" stop-color="#A259FF"/></linearGradient><linearGradient id="n" x1="168.053" x2="167.786" y1="103.503" y2="121.807" gradientUnits="userSpaceOnUse"><stop stop-color="#3B3B3B"/><stop offset="1" stop-color="#A259FF"/></linearGradient><linearGradient id="o" x1="165.149" x2="164.88" y1="107.516" y2="125.821" gradientUnits="userSpaceOnUse"><stop stop-color="#3B3B3B"/><stop offset="1" stop-color="#A259FF"/></linearGradient><linearGradient id="p" x1="123.704" x2="135.466" y1="58.782" y2="97.228" gradientUnits="userSpaceOnUse"><stop stop-color="#FF7262"/><stop offset="1" stop-color="#A259FF"/></linearGradient><linearGradient id="q" x1="115.393" x2="102.616" y1="123.189" y2="75.993" gradientUnits="userSpaceOnUse"><stop stop-color="#A259FF"/><stop offset="1" stop-color="#fff"/></linearGradient><linearGradient id="r" x1="137.015" x2="88.155" y1="183.7" y2="59.385" gradientUnits="userSpaceOnUse"><stop stop-color="#A259FF"/><stop offset=".667" stop-color="#fff"/></linearGradient><clipPath id="a"><path fill="#fff" d="M0 0h250v250H0z"/></clipPath><filter id="c" width="260.174" height="260.174" x="-5.087" y="-5.087" color-interpolation-filters="sRGB" filterUnits="userSpaceOnUse"><feFlood flood-opacity="0" result="BackgroundImageFix"/><feBlend in="SourceGraphic" in2="BackgroundImageFix" result="shape"/><feGaussianBlur result="effect1_foregroundBlur_305_7501" stdDeviation="27"/></filter></defs></svg>
